status/24/battery-full-charging-symbolic.svg

<?xml version="1.0" encoding="UTF-8" standalone="no"?>
<svg
   xmlns:dc="http://purl.org/dc/elements/1.1/"
   xmlns:cc="http://creativecommons.org/ns#"
   xmlns:rdf="http://www.w3.org/1999/02/22-rdf-syntax-ns#"
   xmlns:svg="http://www.w3.org/2000/svg"
   xmlns="http://www.w3.org/2000/svg"
   height="24"
   width="24"
   version="1.1"
   id="svg8">
  <metadata
     id="metadata14">
    <rdf:RDF>
      <cc:Work
         rdf:about="">
        <dc:format>image/svg+xml</dc:format>
        <dc:type
           rdf:resource="http://purl.org/dc/dcmitype/StillImage" />
        <dc:title></dc:title>
      </cc:Work>
    </rdf:RDF>
  </metadata>
  <defs
     id="defs12" />
  <path
     id="rect851"
     style="font-variation-settings:normal;opacity:1;vector-effect:none;fill:#555761;fill-opacity:1;stroke-width:0.999999;stroke-linecap:butt;stroke-linejoin:miter;stroke-miterlimit:4;stroke-dasharray:none;stroke-dashoffset:0;stroke-opacity:0.5;stop-color:#000000;stop-opacity:1"
     d="m 2.9995937,6 c -0.554,0 -1,2.453 -1,5.5 0,3.047 0.446,5.5 1,5.5 H 10.34375 C 10.286073,16.842256 10.25,16.675513 10.25,16.5 c 0,-0.146607 0.02774,-0.281482 0.06445,-0.408203 L 10.333984,16 H 3.6324062 C 3.2815783,16 2.9995937,13.993 2.9995937,11.5 2.9995937,9.007 3.2815783,7 3.6324062,7 H 10.058594 L 10.767578,6 Z M 12.25,6 C 12.100785,6 11.96661,6.064316 11.875,6.1679688 L 7.5703125,12.244141 C 7.5258995,12.318841 7.5,12.40679 7.5,12.5 7.5,12.776138 7.723863,13 8,13 h 4 l -0.707031,3.300781 C 11.266199,16.362041 11.25,16.428871 11.25,16.5 c 0,0.276138 0.223862,0.5 0.5,0.5 0.149215,0 0.283389,-0.06431 0.375,-0.167969 l 4.304688,-6.076172 C 16.474097,10.681159 16.5,10.59321 16.5,10.5 16.5,10.223862 16.276138,10 16,10 H 12 L 12.707031,6.6992188 C 12.733801,6.6379588 12.75,6.571129 12.75,6.5 12.75,6.223863 12.526137,6 12.25,6 Z m 1.40625,0 C 13.71393,6.1577439 13.75,6.3244866 13.75,6.5 c 0,0.1466073 -0.02774,0.2814821 -0.06445,0.4082031 L 13.666016,7 h 6.701172 C 20.718015,7 21,9.007 21,11.5 21,13.993 20.718015,16 20.367188,16 h -6.425782 l -0.708984,1 H 21 c 0.387343,0 0.712678,-1.23711 0.878906,-3 h 1.619141 C 23.776155,14 24,12.885 24,11.5 24,10.115 23.776155,9 23.498047,9 H 21.878906 C 21.712678,7.2371104 21.387343,6 21,6 Z m 8.289062,4 h 0.904297 C 22.932709,10 23,10.669 23,11.5 23,12.331 22.932709,13 22.849609,13 H 21.945312 C 21.970781,12.513456 22,12.032809 22,11.5 22,10.967191 21.970781,10.486544 21.945312,10 Z" />
  <path
     id="rect851-7-2"
     style="font-variation-settings:normal;opacity:0.3;vector-effect:none;fill:#555761;fill-opacity:1;stroke:none;stroke-width:0.999999;stroke-linecap:butt;stroke-linejoin:miter;stroke-miterlimit:4;stroke-dasharray:none;stroke-dashoffset:0;stroke-opacity:0.5;marker:none;stop-color:#000000;stop-opacity:1"
     d="m 4.3359687,8 c -0.1858151,0 -0.3359375,1.561 -0.3359375,3.5 0,1.939 0.1501224,3.5 0.3359375,3.5 h 6.2109063 l 0.214844,-1 H 8 c -0.8165982,0 -1.5,-0.6834 -1.5,-1.5 0,-0.278451 0.077595,-0.543304 0.2109375,-0.767578 0.013442,-0.02269 0.027776,-0.04485 0.042969,-0.06641 L 9.3515625,8 Z M 13.453125,8 13.238281,9 H 16 c 0.816597,0 1.5,0.6834028 1.5,1.5 0,0.278476 -0.07763,0.54334 -0.210938,0.767578 -0.01344,0.02269 -0.02778,0.04485 -0.04297,0.06641 L 14.648438,15 h 5.015624 C 19.849878,15 20,13.439 20,11.5 20,9.561 19.849878,8 19.664062,8 Z" />
</svg>

<?xml version="1.0" encoding="UTF-8" standalone="no"?>
<svg
   xmlns:dc="http://purl.org/dc/elements/1.1/"
   xmlns:cc="http://creativecommons.org/ns#"
   xmlns:rdf="http://www.w3.org/1999/02/22-rdf-syntax-ns#"
   xmlns:svg="http://www.w3.org/2000/svg"
   xmlns="http://www.w3.org/2000/svg"
   height="24"
   width="24"
   version="1.1"
   id="svg8">
  <metadata
     id="metadata14">
    <rdf:RDF>
      <cc:Work
         rdf:about="">
        <dc:format>image/svg+xml</dc:format>
        <dc:type
           rdf:resource="http://purl.org/dc/dcmitype/StillImage" />
        <dc:title></dc:title>
      </cc:Work>
    </rdf:RDF>
  </metadata>
  <defs
     id="defs12" />
  <path
     id="rect851"
     style="opacity:1;fill:#555761;stroke-width:0.999999;stroke-opacity:0.5;stop-color:#000000;font-variation-settings:normal;vector-effect:none;fill-opacity:1;stroke-linecap:butt;stroke-linejoin:miter;stroke-miterlimit:4;stroke-dasharray:none;stroke-dashoffset:0;stop-opacity:1"
     d="M 2 6 C 1.446 6 1 8.453 1 11.5 C 1 14.547 1.446 17 2 17 L 10.34375 17 C 10.286073 16.842256 10.25 16.675513 10.25 16.5 C 10.25 16.353393 10.277737 16.218518 10.314453 16.091797 L 10.333984 16 L 2.6328125 16 C 2.2819845 16 2 13.993 2 11.5 C 2 9.007 2.2819845 7 2.6328125 7 L 10.058594 7 L 10.767578 6 L 2 6 z M 12.25 6 C 12.100785 6 11.96661 6.0643158 11.875 6.1679688 L 7.5703125 12.244141 C 7.5258995 12.318841 7.5 12.40679 7.5 12.5 C 7.5 12.776138 7.723863 13 8 13 L 12 13 L 11.292969 16.300781 C 11.266199 16.362041 11.25 16.428871 11.25 16.5 C 11.25 16.776138 11.473862 17 11.75 17 C 11.899215 17 12.033389 16.935693 12.125 16.832031 L 16.429688 10.755859 C 16.474097 10.681159 16.5 10.59321 16.5 10.5 C 16.5 10.223862 16.276138 10 16 10 L 12 10 L 12.707031 6.6992188 C 12.733801 6.6379588 12.75 6.571129 12.75 6.5 C 12.75 6.223863 12.526137 6 12.25 6 z M 13.65625 6 C 13.713927 6.1577439 13.75 6.3244866 13.75 6.5 C 13.75 6.6466073 13.722263 6.7814821 13.685547 6.9082031 L 13.666016 7 L 20.367188 7 C 20.718015 7 21 9.007 21 11.5 C 21 13.993 20.718015 16 20.367188 16 L 13.941406 16 L 13.232422 17 L 21 17 C 21.387343 17 21.712678 15.76289 21.878906 14 L 23.498047 14 C 23.776155 14 24 12.885 24 11.5 C 24 10.115 23.776155 9 23.498047 9 L 21.878906 9 C 21.712678 7.2371104 21.387343 6 21 6 L 13.65625 6 z M 21.945312 10 L 22.849609 10 C 22.932709 10 23 10.669 23 11.5 C 23 12.331 22.932709 13 22.849609 13 L 21.945312 13 C 21.970781 12.513456 22 12.032809 22 11.5 C 22 10.967191 21.970781 10.486544 21.945312 10 z " />
  <path
     id="rect851-7-2"
     style="fill:#555761;stroke:none;stroke-width:0.999999;stroke-miterlimit:4;stroke-dasharray:none;stroke-opacity:0.5;stop-color:#000000;font-variation-settings:normal;opacity:0.3;vector-effect:none;fill-opacity:1;stroke-linecap:butt;stroke-linejoin:miter;stroke-dashoffset:0;marker:none;stop-opacity:1"
     d="M 3.3359375 8 C 3.1501223 8 3 9.561 3 11.5 C 3 13.439 3.1501223 15 3.3359375 15 L 10.546875 15 L 10.761719 14 L 8 14 C 7.1834018 14 6.5 13.3166 6.5 12.5 C 6.5 12.221549 6.5775951 11.956696 6.7109375 11.732422 A 1.0001 1.0001 0 0 1 6.7539062 11.666016 L 9.3515625 8 L 3.3359375 8 z M 13.453125 8 L 13.238281 9 L 16 9 C 16.816597 9 17.5 9.6834028 17.5 10.5 C 17.5 10.778476 17.422372 11.04334 17.289062 11.267578 A 1.0001 1.0001 0 0 1 17.246094 11.333984 L 14.648438 15 L 19.664062 15 C 19.849878 15 20 13.439 20 11.5 C 20 9.561 19.849878 8 19.664062 8 L 13.453125 8 z " />
</svg>
